X: 15663
T: Gold In Every Pocket But Mine Own
R: hornpipe
M: 4/4
K: Gmajor
|:g2g2 efge|d2B2 G3A|B2B2 A2GA|BddB d2(3def|
g2g2 efge|d2B2 G3A|B2B2 AGAB|1 G4 G2(3def:|2 G4 G3A||
|:BAG2 ABcA|dBG2 G3A|BAG2 ABAG|GFD2 D3A|
BAG2 ABcA|dBG2 G3A|BAGB AGAB|1 G4 G3A:|2 G4 G2(3def||

